assets/delete-but.svg

<?xml version="1.0" encoding="utf-8"?><!-- Uploaded to: SVG Repo, www.svgrepo.com, Generator: SVG Repo Mixer Tools -->
<svg width="800px" height="800px" viewBox="0 0 24 24" fill="none" xmlns="http://www.w3.org/2000/svg">
<path d="M10 11V17" stroke="#ae3f3f" stroke-width="2" stroke-linecap="round" stroke-linejoin="round"/>
<path d="M14 11V17" stroke="#ae3f3f" stroke-width="2" stroke-linecap="round" stroke-linejoin="round"/>
<path d="M4 7H20" stroke="#ae3f3f" stroke-width="2" stroke-linecap="round" stroke-linejoin="round"/>
<path d="M6 7H12H18V18C18 19.6569 16.6569 21 15 21H9C7.34315 21 6 19.6569 6 18V7Z" stroke="#ae3f3f" stroke-width="2" stroke-linecap="round" stroke-linejoin="round"/>
<path d="M9 5C9 3.89543 9.89543 3 11 3H13C14.1046 3 15 3.89543 15 5V7H9V5Z" stroke="#ae3f3f" stroke-width="2" stroke-linecap="round" stroke-linejoin="round"/>
</svg>

<svg xmlns="http://www.w3.org/2000/svg" width="800" height="800" viewBox="0 0 24 24" fill="none" stroke="#ae3f3f" stroke-width="2" xmlns:v="https://vecta.io/nano"><path d="M10 11v6m4-6v6M4 7h16" stroke-linecap="round" stroke-linejoin="round"/><path d="M6 7h6 6v11a3 3 0 0 1-3 3H9a3 3 0 0 1-3-3V7z" stroke-linejoin="round"/><path d="M9 5a2 2 0 0 1 2-2h2a2 2 0 0 1 2 2v2H9V5z" stroke-linejoin="round"/></svg>
